resources/haticons/SVG/insert_chart_outlined.svg

<!-- Generated by IcoMoon.io -->
<svg version="1.1" xmlns="http://www.w3.org/2000/svg" width="24" height="24" viewBox="0 0 24 24">
<title>insert_chart_outlined</title>
<path d="M19.5 3q0.797 0 1.406 0.609t0.609 1.406v13.969q0 0.797-0.609 1.406t-1.406 0.609h-15q-0.797 0-1.406-0.609t-0.609-1.406v-13.969q0-0.797 0.609-1.406t1.406-0.609h15zM19.5 19.078v-14.063h-15v14.063h15zM17.016 17.016h-2.016v-4.031h2.016v4.031zM12.984 17.016h-1.969v-10.031h1.969v10.031zM9 17.016h-2.016v-7.031h2.016v7.031z"></path>
</svg>

<svg xmlns="http://www.w3.org/2000/svg" width="24" height="24"><path d="M19.5 3q.797 0 1.406.609t.609 1.406v13.969q0 .797-.609 1.406t-1.406.609h-15q-.797 0-1.406-.609t-.609-1.406V5.015q0-.797.609-1.406T4.5 3h15zm0 16.078V5.015h-15v14.063h15zm-2.484-2.062H15v-4.031h2.016v4.031zm-4.032 0h-1.969V6.985h1.969v10.031zm-3.984 0H6.984V9.985H9v7.031z"/></svg>
